flaticon/game/dominoes.svg

<svg xmlns="http://www.w3.org/2000/svg" width="32" height="32" viewBox="0 0 24 24">
    <path d="M3.429688 14.378906C3.429688 14.851562 3.046875 15.238281 2.574219 15.238281 2.101562 15.238281 1.714844 14.851562 1.714844 14.378906 1.714844 13.90625 2.101562 13.523438 2.574219 13.523438 3.046875 13.523438 3.429688 13.90625 3.429688 14.378906zM8.148438 14.378906C8.148438 14.851562 7.765625 15.238281 7.292969 15.238281 6.816406 15.238281 6.433594 14.851562 6.433594 14.378906 6.433594 13.90625 6.816406 13.523438 7.292969 13.523438 7.765625 13.523438 8.148438 13.90625 8.148438 14.378906zM3.429688 19.097656C3.429688 19.570312 3.046875 19.957031 2.574219 19.957031 2.101562 19.957031 1.714844 19.570312 1.714844 19.097656 1.714844 18.625 2.101562 18.238281 2.574219 18.238281 3.046875 18.238281 3.429688 18.625 3.429688 19.097656zM8.148438 19.097656C8.148438 19.570312 7.765625 19.957031 7.292969 19.957031 6.816406 19.957031 6.433594 19.570312 6.433594 19.097656 6.433594 18.625 6.816406 18.238281 7.292969 18.238281 7.765625 18.238281 8.148438 18.625 8.148438 19.097656zM5.789062 16.882812C5.789062 17.355469 5.40625 17.738281 4.933594 17.738281 4.457031 17.738281 4.074219 17.355469 4.074219 16.882812 4.074219 16.40625 4.457031 16.023438 4.933594 16.023438 5.40625 16.023438 5.789062 16.40625 5.789062 16.882812zM5.789062 16.882812"/>
    <path d="M 8.40625 2.796875 L 1.457031 2.796875 C 0.652344 2.796875 0 3.453125 0 4.257812 L 0 11.203125 C 0 11.605469 0.164062 11.96875 0.425781 12.234375 C 0.164062 12.5 0 12.863281 0 13.265625 L 0 20.210938 C 0 21.015625 0.652344 21.671875 1.457031 21.671875 L 8.40625 21.671875 C 9.210938 21.671875 9.863281 21.015625 9.863281 20.210938 L 9.863281 13.265625 C 9.863281 12.863281 9.703125 12.5 9.4375 12.234375 C 9.703125 11.96875 9.863281 11.605469 9.863281 11.203125 L 9.863281 4.257812 C 9.863281 3.453125 9.210938 2.796875 8.40625 2.796875 Z M 0.859375 4.257812 C 0.859375 3.925781 1.128906 3.65625 1.457031 3.65625 L 8.40625 3.65625 C 8.738281 3.65625 9.007812 3.925781 9.007812 4.257812 L 9.007812 11.203125 C 9.007812 11.535156 8.738281 11.804688 8.40625 11.804688 L 1.457031 11.804688 C 1.128906 11.804688 0.859375 11.535156 0.859375 11.203125 Z M 9.007812 20.210938 C 9.007812 20.542969 8.738281 20.8125 8.40625 20.8125 L 1.457031 20.8125 C 1.128906 20.8125 0.859375 20.542969 0.859375 20.210938 L 0.859375 13.265625 C 0.859375 12.933594 1.128906 12.664062 1.457031 12.664062 L 8.40625 12.664062 C 8.738281 12.664062 9.007812 12.933594 9.007812 13.265625 Z M 9.007812 20.210938"/>
    <path d="M3.429688 5.371094C3.429688 5.847656 3.046875 6.230469 2.574219 6.230469 2.101562 6.230469 1.714844 5.847656 1.714844 5.371094 1.714844 4.898438 2.101562 4.515625 2.574219 4.515625 3.046875 4.515625 3.429688 4.898438 3.429688 5.371094zM8.148438 5.371094C8.148438 5.847656 7.765625 6.230469 7.292969 6.230469 6.816406 6.230469 6.433594 5.847656 6.433594 5.371094 6.433594 4.898438 6.816406 4.515625 7.292969 4.515625 7.765625 4.515625 8.148438 4.898438 8.148438 5.371094zM3.429688 10.089844C3.429688 10.5625 3.046875 10.949219 2.574219 10.949219 2.101562 10.949219 1.714844 10.5625 1.714844 10.089844 1.714844 9.617188 2.101562 9.230469 2.574219 9.230469 3.046875 9.230469 3.429688 9.617188 3.429688 10.089844zM8.148438 10.089844C8.148438 10.5625 7.765625 10.949219 7.292969 10.949219 6.816406 10.949219 6.433594 10.5625 6.433594 10.089844 6.433594 9.617188 6.816406 9.230469 7.292969 9.230469 7.765625 9.230469 8.148438 9.617188 8.148438 10.089844zM15.175781 10.527344C15.175781 11 14.792969 11.386719 14.320312 11.386719 13.84375 11.386719 13.460938 11 13.460938 10.527344 13.460938 10.054688 13.84375 9.667969 14.320312 9.667969 14.792969 9.667969 15.175781 10.054688 15.175781 10.527344zM18.535156 4.761719C18.535156 5.234375 18.152344 5.621094 17.675781 5.621094 17.203125 5.621094 16.820312 5.234375 16.820312 4.761719 16.820312 4.289062 17.203125 3.90625 17.675781 3.90625 18.152344 3.90625 18.535156 4.289062 18.535156 4.761719zM16.820312 7.507812C16.820312 7.980469 16.433594 8.363281 15.960938 8.363281 15.488281 8.363281 15.105469 7.980469 15.105469 7.507812 15.105469 7.03125 15.488281 6.648438 15.960938 6.648438 16.433594 6.648438 16.820312 7.03125 16.820312 7.507812zM16.820312 7.507812"/>
    <path d="M 23.949219 18.457031 L 22.179688 11.738281 C 22.078125 11.359375 21.839844 11.046875 21.503906 10.851562 C 21.691406 10.527344 21.753906 10.132812 21.652344 9.746094 L 19.882812 3.027344 C 19.675781 2.25 18.878906 1.785156 18.097656 1.988281 L 11.378906 3.761719 C 10.601562 3.96875 10.136719 4.765625 10.34375 5.542969 L 12.113281 12.261719 C 12.21875 12.652344 12.46875 12.957031 12.792969 13.144531 C 12.789062 13.144531 12.789062 13.144531 12.789062 13.148438 C 12.59375 13.484375 12.542969 13.875 12.640625 14.253906 L 14.414062 20.972656 C 14.511719 21.347656 14.753906 21.664062 15.089844 21.859375 C 15.3125 21.992188 15.566406 22.058594 15.820312 22.058594 C 15.945312 22.058594 16.070312 22.042969 16.195312 22.007812 L 22.914062 20.238281 C 23.289062 20.136719 23.605469 19.898438 23.800781 19.5625 C 23.996094 19.222656 24.050781 18.832031 23.949219 18.457031 Z M 11.171875 5.324219 C 11.089844 5.003906 11.277344 4.675781 11.597656 4.589844 L 18.316406 2.820312 C 18.640625 2.734375 18.96875 2.925781 19.050781 3.246094 L 20.824219 9.964844 C 20.910156 10.285156 20.714844 10.613281 20.398438 10.699219 L 13.679688 12.472656 C 13.355469 12.554688 13.027344 12.363281 12.945312 12.042969 Z M 23.058594 19.128906 C 22.980469 19.269531 22.851562 19.367188 22.695312 19.40625 L 15.976562 21.179688 C 15.820312 21.222656 15.660156 21.199219 15.519531 21.117188 C 15.382812 21.039062 15.28125 20.90625 15.242188 20.753906 L 13.46875 14.035156 C 13.429688 13.878906 13.449219 13.71875 13.53125 13.578125 C 13.613281 13.441406 13.742188 13.339844 13.898438 13.300781 L 20.617188 11.527344 C 20.667969 11.515625 20.71875 11.507812 20.769531 11.507812 C 20.875 11.507812 20.976562 11.535156 21.070312 11.589844 C 21.210938 11.671875 21.308594 11.800781 21.347656 11.957031 L 23.121094 18.671875 C 23.164062 18.828125 23.140625 18.992188 23.058594 19.128906 Z M 23.058594 19.128906"/>
    <path d="M22.035156 18.035156C22.035156 18.507812 21.652344 18.890625 21.179688 18.890625 20.703125 18.890625 20.320312 18.507812 20.320312 18.035156 20.320312 17.558594 20.703125 17.175781 21.179688 17.175781 21.652344 17.175781 22.035156 17.558594 22.035156 18.035156zM17.472656 19.238281C17.472656 19.710938 17.089844 20.09375 16.617188 20.09375 16.140625 20.09375 15.757812 19.710938 15.757812 19.238281 15.757812 18.761719 16.140625 18.378906 16.617188 18.378906 17.089844 18.378906 17.472656 18.761719 17.472656 19.238281zM20.832031 13.472656C20.832031 13.945312 20.449219 14.328125 19.976562 14.328125 19.5 14.328125 19.117188 13.945312 19.117188 13.472656 19.117188 12.996094 19.5 12.613281 19.976562 12.613281 20.449219 12.613281 20.832031 12.996094 20.832031 13.472656zM16.269531 14.675781C16.269531 15.148438 15.886719 15.53125 15.414062 15.53125 14.9375 15.53125 14.554688 15.148438 14.554688 14.675781 14.554688 14.199219 14.9375 13.816406 15.414062 13.816406 15.886719 13.816406 16.269531 14.199219 16.269531 14.675781zM16.269531 14.675781"/>
</svg>

<svg xmlns="http://www.w3.org/2000/svg" width="32" height="32" viewBox="0 0 24 24">
    <path d="M3.43 14.379c0 .473-.383.86-.856.86a.862.862 0 0 1-.86-.86.859.859 0 0 1 1.716 0zm0 0M8.148 14.379a.859.859 0 1 1-1.717.002.859.859 0 0 1 1.717-.002zm0 0M3.43 19.098c0 .472-.383.859-.856.859a.862.862 0 0 1-.86-.86c0-.472.388-.859.86-.859.473 0 .856.387.856.86zm0 0M8.148 19.098a.859.859 0 1 1-1.717.001.859.859 0 0 1 1.717-.001zm0 0M5.79 16.883a.855.855 0 0 1-.856.855.857.857 0 1 1 .855-.855zm0 0"/>
    <path d="M8.406 2.797H1.457A1.46 1.46 0 0 0 0 4.257v6.946c0 .402.164.766.426 1.031A1.466 1.466 0 0 0 0 13.266v6.945c0 .805.652 1.46 1.457 1.46h6.95a1.46 1.46 0 0 0 1.456-1.46v-6.945c0-.403-.16-.766-.425-1.032a1.45 1.45 0 0 0 .425-1.03V4.257a1.46 1.46 0 0 0-1.457-1.461zM.86 4.257c0-.331.27-.6.598-.6h6.95c.331 0 .6.269.6.6v6.946c0 .332-.269.602-.6.602h-6.95a.601.601 0 0 1-.598-.602zm8.149 15.954c0 .332-.27.602-.602.602H1.457a.601.601 0 0 1-.598-.602v-6.945c0-.332.27-.602.598-.602h6.95c.331 0 .6.27.6.602zm0 0"/>
    <path d="M3.43 5.371c0 .477-.383.86-.856.86a.859.859 0 1 1 .855-.86zm0 0M8.148 5.371a.857.857 0 1 1 0 0zm0 0M3.43 10.09c0 .473-.383.86-.856.86a.862.862 0 0 1-.86-.86c0-.473.388-.86.86-.86.473 0 .856.387.856.86zm0 0M8.148 10.09a.859.859 0 1 1-1.717.001.859.859 0 0 1 1.717-.001zm0 0M15.176 10.527a.859.859 0 1 1-1.717.002.859.859 0 0 1 1.717-.002zm0 0M18.535 4.762a.859.859 0 1 1 0 0zm0 0M16.82 7.508a.859.859 0 1 1-1.717-.006.859.859 0 0 1 1.717.006zm0 0"/>
    <path d="M23.95 18.457l-1.77-6.719a1.448 1.448 0 0 0-.676-.886c.187-.325.25-.72.148-1.106l-1.77-6.719a1.465 1.465 0 0 0-1.784-1.039l-6.72 1.774a1.457 1.457 0 0 0-1.034 1.781l1.77 6.719c.105.39.355.695.679.883-.004 0-.004 0-.004.003a1.456 1.456 0 0 0-.148 1.106l1.773 6.719c.098.375.34.691.676.886a1.427 1.427 0 0 0 1.105.149l6.72-1.77a1.458 1.458 0 0 0 1.034-1.781zM11.171 5.324a.603.603 0 0 1 .426-.734l6.718-1.77a.597.597 0 0 1 .735.426l1.773 6.719a.603.603 0 0 1-.426.734l-6.718 1.774a.602.602 0 0 1-.735-.43zM23.059 19.13a.567.567 0 0 1-.364.277l-6.718 1.774a.587.587 0 0 1-.457-.063.59.59 0 0 1-.278-.363l-1.773-6.719a.604.604 0 0 1 .43-.734l6.718-1.774a.59.59 0 0 1 .453.063c.14.082.239.21.278.367l1.773 6.715c.043.156.02.32-.062.457zm0 0"/>
    <path d="M22.035 18.035a.855.855 0 0 1-.855.856.857.857 0 1 1 .855-.855zm0 0M17.473 19.238a.855.855 0 0 1-.856.856.857.857 0 1 1 .855-.855zm0 0M20.832 13.473a.855.855 0 0 1-.855.855.857.857 0 1 1 .855-.855zm0 0M16.27 14.676a.855.855 0 0 1-.856.855.857.857 0 1 1 .855-.855zm0 0"/>
</svg>
